X:104
M:C
L:1/8
K:A
^defb agfe | bgeb af^da | gfe^d {d}e4::eBGE Ace=g | fedc dAFD |
f^dBd fgaf | gfe^d eBGE | FAdc defg | afdB AGFE | FAdc dfed | cBAG {G}A4 :|

